X: 1
T: Circle of Fifths
C: Gary Roodman
N: for Stockport Assembly
R: march
Z: 2006 John Chambers <jc@trillian.mit.edu>
M: C|
L: 1/8
K: C
"G7"GBcd \
| "C"e3c e2c2 | "F"A2 f4 A2 \
| "G7"Bcd2 B2G2 | "C"E3E "(G/B)"FGAB \
| "Am"c3A c2E2 | "Dm"F2A2 c2A2 |
|1 "D"^F2A2 d2F2 | "G7"G4 \
:|2 "G"B2d2 G2B2 | "C"c4 "E"B2^G2 \
|: "Am"A3c e2a2 | "Dm"f2d2 A2d2 \
| "G"G3B d2g2 |
| "C"e2c2 G2c2 \
| "F"A2c2 f2c2 | "Dm"d2f2 b2 f2 \
|1 "E"^g2ed B2g2 | "Am"a2ed "(E7)"c2B2 \
:|2 "E"^g2ed B2^G2 | "Am"A4 |]
